packages/elvis-assets-icons/icons/svg/src/dashboard-color.svg

<svg width="24" height="24" fill="none" xmlns="http://www.w3.org/2000/svg"><g clip-path="url(#clip0)"><path d="M5.25 10.505A5.256 5.256 0 010 5.255 5.256 5.256 0 015.25.005a5.256 5.256 0 015.25 5.25 5.256 5.256 0 01-5.25 5.25zm0-9a3.754 3.754 0 00-3.75 3.75 3.754 3.754 0 003.75 3.75A3.754 3.754 0 009 5.255a3.754 3.754 0 00-3.75-3.75z" fill="#000"/><path d="M5.25 24.005A5.256 5.256 0 010 18.755a5.256 5.256 0 015.25-5.25 5.256 5.256 0 015.25 5.25 5.256 5.256 0 01-5.25 5.25zm0-9a3.754 3.754 0 00-3.75 3.75 3.754 3.754 0 003.75 3.75A3.754 3.754 0 009 18.755a3.754 3.754 0 00-3.75-3.75z" fill="#29D305"/><path d="M18.75 10.505a5.256 5.256 0 01-5.25-5.25 5.256 5.256 0 015.25-5.25A5.256 5.256 0 0124 5.255a5.256 5.256 0 01-5.25 5.25zm0-9A3.754 3.754 0 0015 5.255a3.754 3.754 0 003.75 3.75 3.754 3.754 0 003.75-3.75 3.754 3.754 0 00-3.75-3.75zM18.75 24.005a5.256 5.256 0 01-5.25-5.25 5.256 5.256 0 015.25-5.25 5.256 5.256 0 015.25 5.25 5.256 5.256 0 01-5.25 5.25zm0-9a3.754 3.754 0 00-3.75 3.75 3.754 3.754 0 003.75 3.75 3.754 3.754 0 003.75-3.75 3.754 3.754 0 00-3.75-3.75z" fill="#000"/></g><defs><clipPath id="clip0"><path d="M0 0h24v24H0V0z" fill="#fff"/></clipPath></defs></svg>

<svg width="24" height="24" viewBox="0 0 24 24" fill="none" xmlns="http://www.w3.org/2000/svg">
<g clip-path="url(#clip0)">
<path d="M5.25 10.505C2.355 10.505 0 8.15001 0 5.255C0 2.36 2.355 0.00500488 5.25 0.00500488C8.145 0.00500488 10.5 2.36 10.5 5.255C10.5 8.15001 8.145 10.505 5.25 10.505ZM5.25 1.505C3.182 1.505 1.5 3.187 1.5 5.255C1.5 7.323 3.182 9.005 5.25 9.005C7.318 9.005 9 7.323 9 5.255C9 3.187 7.318 1.505 5.25 1.505Z" fill="black"/>
<path d="M5.25 24.005C2.355 24.005 0 21.65 0 18.755C0 15.86 2.355 13.505 5.25 13.505C8.145 13.505 10.5 15.86 10.5 18.755C10.5 21.65 8.145 24.005 5.25 24.005ZM5.25 15.005C3.182 15.005 1.5 16.687 1.5 18.755C1.5 20.823 3.182 22.505 5.25 22.505C7.318 22.505 9 20.823 9 18.755C9 16.687 7.318 15.005 5.25 15.005Z" fill="#29D305"/>
<path d="M18.75 10.505C15.855 10.505 13.5 8.15001 13.5 5.255C13.5 2.36 15.855 0.00500488 18.75 0.00500488C21.645 0.00500488 24 2.36 24 5.255C24 8.15001 21.645 10.505 18.75 10.505ZM18.75 1.505C16.682 1.505 15 3.187 15 5.255C15 7.323 16.682 9.005 18.75 9.005C20.818 9.005 22.5 7.323 22.5 5.255C22.5 3.187 20.818 1.505 18.75 1.505Z" fill="black"/>
<path d="M18.75 24.005C15.855 24.005 13.5 21.65 13.5 18.755C13.5 15.86 15.855 13.505 18.75 13.505C21.645 13.505 24 15.86 24 18.755C24 21.65 21.645 24.005 18.75 24.005ZM18.75 15.005C16.682 15.005 15 16.687 15 18.755C15 20.823 16.682 22.505 18.75 22.505C20.818 22.505 22.5 20.823 22.5 18.755C22.5 16.687 20.818 15.005 18.75 15.005Z" fill="black"/>
</g>
<defs>
<clipPath id="clip0">
<path d="M0 0H24V24H0V0Z" fill="white"/>
</clipPath>
</defs>
</svg>
